svg/upload.svg

<svg xmlns="http://www.w3.org/2000/svg" viewBox="0 0 64 65" enable-background="new 0 0 64 65"><style type="text/css">.st0{fill:#333333;}</style><title>upload</title><desc>Created with Sketch.</desc><path class="st0" d="M64 54c0-1.1-.9-2-2-2s-2 .9-2 2v3.1c0 2.2-1.8 4-4 4h-48c-2.2 0-4-1.8-4-4v-3.1c0-1.1-.9-2-2-2s-2 .9-2 2v3c0 4.4 3.6 8 8 8h48c4.4 0 8-3.6 8-8v-3zM19.3 18.4l10.7-10.7v39.3c0 1.1.9 2 2 2s2-.9 2-2v-39.3l10.7 10.7c.8.8 2 .8 2.8 0 .8-.8.8-2 0-2.8l-14.1-14.2c-.4-.3-.9-.5-1.4-.5-.5 0-1 .2-1.4.6l-14.2 14.1c-.8.8-.8 2 0 2.8.8.8 2.1.8 2.9 0z"/></svg>

<?xml version="1.0" encoding="utf-8"?>
<!-- Generator: Adobe Illustrator 21.0.0, SVG Export Plug-In . SVG Version: 6.00 Build 0)  -->
<svg version="1.1" id="Layer_1" xmlns="http://www.w3.org/2000/svg" xmlns:xlink="http://www.w3.org/1999/xlink" x="0px" y="0px"
	 viewBox="0 0 64 65" style="enable-background:new 0 0 64 65;" xml:space="preserve">
<style type="text/css">
	.st0{fill:#333333;}
</style>
<title>upload</title>
<desc>Created with Sketch.</desc>
<g>
	<path class="st0" d="M64,54c0-1.1-0.9-2-2-2s-2,0.9-2,2c0,0.1,0,0.1,0,0.2h0v2.9c0,2.2-1.8,4-4,4H8c-2.2,0-4-1.8-4-4v-2.9h0
		C4,54.1,4,54,4,54c0-1.1-0.9-2-2-2s-2,0.9-2,2c0,0.1,0,0.1,0,0.2h0V57c0,4.4,3.6,8,8,8h48c4.4,0,8-3.6,8-8v-2.8h0
		C64,54.1,64,54.1,64,54z"/>
	<path class="st0" d="M19.3,18.4L30,7.7V47c0,1.1,0.9,2,2,2c1.1,0,2-0.9,2-2V7.7l10.7,10.7c0.8,0.8,2,0.8,2.8,0c0.8-0.8,0.8-2,0-2.8
		L33.4,1.4l0,0l0,0C33,1.1,32.5,0.9,32,0.9c-0.5,0-1,0.2-1.4,0.6l0,0l0,0L16.4,15.6c-0.8,0.8-0.8,2,0,2.8
		C17.2,19.2,18.5,19.2,19.3,18.4z"/>
</g>
</svg>
